domfk/img/icons/icon-4.svg

<svg width="13" height="13" viewBox="0 0 13 13" fill="none" xmlns="http://www.w3.org/2000/svg">
<path d="M12.0705 8.359L13 7.4295L12.0705 6.5L9.75 8.8205L4.1795 3.25L6.5 0.9295L5.5705 0L4.641 0.9295L3.7115 0L2.3205 1.391L1.391 0.4615L0.4615 1.391L1.391 2.3205L0 3.7115L0.9295 4.641L0 5.5705L0.9295 6.5L3.25 4.1795L8.8205 9.75L6.5 12.0705L7.4295 13L8.359 12.0705L9.2885 13L10.6795 11.609L11.609 12.5385L12.5385 11.609L11.609 10.6795L13 9.2885L12.0705 8.359Z" fill="#FFC844"/>
</svg>

<svg width="13" height="13" fill="none" xmlns="http://www.w3.org/2000/svg"><path d="M12.07 8.359l.93-.93-.93-.929-2.32 2.32-5.57-5.57L6.5.93 5.57 0l-.929.93-.93-.93-1.39 1.391-.93-.93-.93.93.93.93L0 3.71l.93.93-.93.93.93.929 2.32-2.32 5.57 5.57-2.32 2.32.93.93.929-.93.93.93 1.39-1.391.93.93.93-.93-.93-.93L13 9.29l-.93-.93z" fill="#FFC844"/></svg>
